X: 1
T: Geese In The Bog, The
M: 6/8
L: 1/8
R: jig
K: Dmaj
Add fdB|AFA AFA|Add fdB|AFA BBB|
Add fdB|AFA DFA|gfe fdB|AFA BBB:|
AFE DFE|DFA BdB|AFD DFA|BGA BBB|
AFE DFE|DFA Bgf|ggg fdB|AFA BBB:|
